!!!COM: Palestrina, Giovanni Perluigi da
!!!OPR: Salvum me fac
!!!OTL: Benedictus
**kern	**kern	**kern	**kern
*Itenor	*Icalto	*Icant	*Icant
!Tenor	!Altus	!Cantus 2	!Cantus 1
*clefGv2	*clefG2	*clefG2	*clefG2
*k[b-]	*k[b-]	*k[b-]	*k[b-]
*G:dor	*G:dor	*G:dor	*G:dor
*M4/2	*M4/2	*M4/2	*M4/2
=1	=1	=1	=1
0r	1.a	0r	0r
.	2a	.	.
=2	=2	=2	=2
1r	1b-	0r	0r
[1d	1a	.	.
=3	=3	=3	=3
2d]	1f	0r	0r
2d	.	.	.
1e-	1g	.	.
=4	=4	=4	=4
1d	1a	1.dd	0r
1B-	1d	.	.
.	.	2dd	.
=5	=5	=5	=5
1c	2r	1ee-	0r
.	1g	.	.
1d	.	1dd	.
.	2f#	.	.
=6	=6	=6	=6
2G	1g	1b-	0r
2g	.	.	.
2f	2a	1cc	.
2e	[2cc	.	.
=7	=7	=7	=7
2f	2cc]	1dd	1r
1g	1b-	.	.
.	.	1g	[1dd
4f	4a	.	.
4e-	4g	.	.
=8	=8	=8	=8
4d	1f	2a	2dd]
4c	.	.	.
2d	.	2b-	2dd
1c	2.g	2cc	1ee-
.	.	4g	.
.	4f	4a	.
=9	=9	=9	=9
0G	4g	4b-	1dd
.	4a	4cc	.
.	2.b-	2.dd	.
.	.	.	1b-
.	4a	4cc	.
.	2g	[2b-	.
=10	=10	=10	=10
0r	2.f	2b-]	1cc
.	.	2a	.
.	4e-	.	.
.	4d	[1b-	1dd
.	4c	.	.
.	2B-	.	.
=11	=11	=11	=11
1r	1e-	2b-]	2g
.	.	4a	1gg
.	.	4g	.
2r	1d	2a	.
[2d	.	[2dd	4ff
.	.	.	4ee
=12	=12	=12	=12
2d]	0r	4dd]	4ff
.	.	4cc	4ee-
2d	.	4b-	4dd
.	.	4a	4cc
1e-	.	1g	2b-
.	.	.	2cc
=13	=13	=13	=13
0d	1.a	1f	2.dd
.	.	.	4cc
.	.	2r	4dd
.	.	.	4ee
.	2a	[2dd	[2ff
=14	=14	=14	=14
1B-	1b-	2dd]	4ff]
.	.	.	4ee-
.	.	2dd	2dd
1c	2a	1ee-	2.cc
.	[2g	.	.
.	.	.	4b-
=15	=15	=15	=15
1d	2g]	1dd	1a
.	2f#	.	.
2G	2g	1b-	1g
2g	[2b-	.	.
=16	=16	=16	=16
2e-	2b-]	1cc	1r
2f	2a	.	.
1B-	2g	1dd	2r
.	2f	.	[2dd
=17	=17	=17	=17
0r	4b-	2g	2dd]
.	4a	.	.
.	4g	2b-	2dd
.	4f	.	.
.	4e-	1cc	1ee-
.	4d	.	.
.	2c	.	.
=18	=18	=18	=18
2r	1g	2.b-	1dd
2g	.	.	.
.	.	4cc	.
2g	2r	1dd	1b-
2g	2b-	.	.
=19	=19	=19	=19
2f	2a	2r	1cc
2e-	2g	2g	.
1d	2.f	2a	1dd
.	.	2b-	.
.	4d	.	.
=20	=20	=20	=20
2c	4e	2cc	1g
.	4f	.	.
2e-	1g	2cc	.
1d	.	2.dd	1a
.	2f#	.	.
.	.	4cc	.
=21	=21	=21	=21
1G	2g	4b-	4g
.	.	4a	4a
.	2d	2g	4b-
.	.	.	4cc
2r	2d	2f	[1dd
2G	2d	[2b-	.
=22	=22	=22	=22
2G	1g	2b-]	1dd]
2G	.	4a	.
.	.	4g	.
1d	2.f	[1a	1r
.	8e	.	.
.	8d	.	.
=23	=23	=23	=23
2.c	2e	1a]	2r
.	2A	.	2a
8d	.	.	.
8e	.	.	.
[1f	2.d	1r	2a
.	.	.	2a
.	8c	.	.
.	8B-	.	.
=24	=24	=24	=24
2f]	1A	2r	1cc
2e	.	2a	.
[1d	[1f	2a	2.dd
.	.	2a	.
.	.	.	4cc
=25	=25	=25	=25
2d]	2f]	0dd	2b-
2c	2e	.	1a
2B-	2d	.	.
2B-	2d	.	2g
=26	=26	=26	=26
1A	1e	2.cc	2a
.	.	.	2a
.	.	8dd	.
.	.	8ee	.
1r	2r	[1ff	2a
.	2d	.	2a
=27	=27	=27	=27
0r	2d	1ff]	1dd
.	2d	.	.
.	1a	1ee	2.cc
.	.	.	8dd
.	.	.	8ee
=28	=28	=28	=28
0r	2.f	2dd	1.ff
.	.	2cc	.
.	8g	.	.
.	8a	.	.
.	[1b-	[1dd	.
.	.	.	2ee-
=29	=29	=29	=29
1G	2b-]	0dd]	2dd
.	2a	.	2cc
2G	1g	.	2.b-
2G	.	.	.
.	.	.	8a
.	.	.	8g
=30	=30	=30	=30
1d	2.f	0r	1.a
.	8e	.	.
.	8d	.	.
2.c	2e	.	.
.	2A	.	2a
8d	.	.	.
8e	.	.	.
=31	=31	=31	=31
1.f	2.d	1r	[0a
.	8c	.	.
.	8B-	.	.
.	1A	1cc	.
2e-	.	.	.
=32	=32	=32	=32
2.d	1r	2.ff	1a]
4c	.	4ee-	.
2B-	1f	2dd	1r
2A	.	2cc	.
=33	=33	=33	=33
1G	2.b-	2.dd	0r
.	4a	4cc	.
1r	2g	4dd	.
.	.	4ee	.
.	2f	[2ff	.
=34	=34	=34	=34
1c	2g	2ff]	1r
.	2g	2ee	.
2.f	2.a	1ff	1cc
4e-	4g	.	.
=35	=35	=35	=35
2d	2f	1r	2.ff
4B-	1b-	.	.
4c	.	.	4ee-
4d	.	1f	2dd
4e-	.	.	.
2f	2a	.	2cc
=36	=36	=36	=36
2.B-	1b-	2.ff	2.dd
4c	.	4ee-	4cc
4d	2r	2dd	2b-
4e-	.	.	.
2f	2a	2cc	2a
=37	=37	=37	=37
2B-	2.b-	2.dd	4g
.	.	.	4f
4G	.	.	1b-
4A	4a	4cc	.
4B-	2g	4dd	.
4c	.	4ee	.
2d	2f	2ff	2a
=38	=38	=38	=38
1G	2.g	4ee	1b-
.	.	4dd	.
.	.	1dd	.
.	4f	.	.
2A	2e	.	1a
2A	2e	2cc#	.
=39	=39	=39	=39
2.B-	1d	[0dd	2r
.	.	.	2f
4A	.	.	.
2G	2r	.	2b-
2F#	2a	.	2a
=40	=40	=40	=40
2.G	2.b-	1dd_	2g
.	.	.	1b-
4A	4a	.	.
4B-	2g	1dd_	.
4c	.	.	.
2d	2f#	.	2a
=41	=41	=41	=41
1G	1g	0dd]	1b-
1G	1g	.	1b-
=42	=42	=42	=42
[0d	[0f#	[0dd	[0a
=43	=43	=43	=43
0d]	0f#]	0dd]	0a]
==	==	==	==
*-	*-	*-	*-
!!!CDT: 1525/^1526/-1594/2/2
!!!OCY: Italia
!!!AGN: Mass (Parody)
!!!AST: renaissance, vocal
!!!ASW: Motet 1538 (Jacquet)
!!!PWK: Masses, Book 2
!!!RNB: Cadence finals: D
!!!YOR: Le Opere Complete, v. 4, p. 126
!!!YOO: Rome, Italy: Fratelli Scalera
!!!END: 1992//
!!!EED: John Miller
!!!YEC: Copyright 2000, John Miller
!!!YEN: United States of America
!!!YEM: Rights to all derivative electronic formats reserved.
!!!YEM: Refer to licensing agreement for further details.
!!!YEM: This file must be accompanied by the licensing agreement.
!!!YEM: A copy of the licensing agreement may be found at http://www.music-cog.ohio-state.edu/HumdrumDatabases/Palestrina/license.txt
!!!EMD: converted to Humdrum by Bret Aarden
